_includes/icons/ios-sun.svg

<svg fill="#666" height="50" viewBox="0 0 50 50" width="50" xmlns="http://www.w3.org/2000/svg"><path d="m24.90625 3.96875c-.042969.007813-.085937.019531-.125.03125-.464844.105469-.792969.523438-.78125 1v6c-.003906.359375.183594.695313.496094.878906.3125.179688.695312.179688 1.007812 0 .3125-.183593.5-.519531.496094-.878906v-6c.011719-.289062-.105469-.566406-.3125-.761719-.210937-.199218-.496094-.296875-.78125-.269531zm-14.25 5.875c-.375.066406-.675781.339844-.78125.703125-.105469.367188.003906.757813.28125 1.015625l4.25 4.25c.242188.296875.628906.433594 1.003906.347656.371094-.085937.664063-.378906.75-.75.085938-.375-.050781-.761718-.347656-1.003906l-4.25-4.25c-.207031-.222656-.507812-.335937-.8125-.3125-.03125 0-.0625 0-.09375 0zm28.375 0c-.226562.03125-.4375.144531-.59375.3125l-4.25 4.25c-.296875.242188-.433594.628906-.347656 1.003906.085937.371094.378906.664063.75.75.375.085938.761719-.050781 1.003906-.347656l4.25-4.25c.3125-.296875.402344-.761719.21875-1.152344-.1875-.394531-.601562-.621093-1.03125-.566406zm-14.125 5.15625c-.03125.007813-.0625.019531-.09375.03125-.0625.003906-.125.015625-.1875.03125-.011719.011719-.019531.019531-.03125.03125-5.304687.226563-9.59375 4.546875-9.59375 9.90625 0 5.503906 4.496094 10 10 10s10-4.496094 10-10c0-5.339844-4.253906-9.644531-9.53125-9.90625-.035156 0-.058594-.03125-.09375-.03125-.101562-.039062-.207031-.058594-.3125-.0625-.019531 0-.042969 0-.0625 0-.03125 0-.0625 0-.09375 0zm.03125 2h.0625.09375c4.375.050781 7.90625 3.613281 7.90625 8 0 4.421875-3.578125 8-8 8-4.417969 0-8-3.578125-8-8 0-4.398437 3.546875-7.964844 7.9375-8zm-20.21875 7c-.550781.078125-.9375.589844-.859375 1.140625s.589844.9375 1.140625.859375h6c.359375.003906.695313-.183594.878906-.496094.179688-.3125.179688-.695312 0-1.007812-.183593-.3125-.519531-.5-.878906-.496094h-6c-.03125 0-.0625 0-.09375 0s-.0625 0-.09375 0-.0625 0-.09375 0zm34 0c-.550781.078125-.9375.589844-.859375 1.140625s.589844.9375 1.140625.859375h6c.359375.003906.695313-.183594.878906-.496094.179688-.3125.179688-.695312 0-1.007812-.183593-.3125-.519531-.5-.878906-.496094h-6c-.03125 0-.0625 0-.09375 0s-.0625 0-.09375 0-.0625 0-.09375 0zm-23.71875 9.875c-.226562.03125-.4375.144531-.59375.3125l-4.25 4.25c-.296875.242188-.433594.628906-.347656 1.003906.085937.371094.378906.664063.75.75.375.085938.761719-.050781 1.003906-.347656l4.25-4.25c.296875-.285156.386719-.726562.226563-1.105469-.15625-.378906-.535157-.621093-.945313-.613281-.03125 0-.0625 0-.09375 0zm19.6875 0c-.375.066406-.675781.339844-.78125.703125-.105469.367188.003906.757813.28125 1.015625l4.25 4.25c.242188.296875.628906.433594 1.003906.347656.371094-.085937.664063-.378906.75-.75.085938-.375-.050781-.761718-.347656-1.003906l-4.25-4.25c-.1875-.199219-.445312-.308594-.71875-.3125-.03125 0-.0625 0-.09375 0s-.0625 0-.09375 0zm-9.78125 4.09375c-.042969.007813-.085937.019531-.125.03125-.464844.105469-.792969.523438-.78125 1v6c-.003906.359375.183594.695313.496094.878906.3125.179688.695312.179688 1.007812 0 .3125-.183593.5-.519531.496094-.878906v-6c.011719-.289062-.105469-.566406-.3125-.761719-.210937-.199218-.496094-.296875-.78125-.269531z"/></svg>

<svg xmlns="http://www.w3.org/2000/svg" viewBox="0 0 50 50" width="50" height="50" fill="#666"><path d="M 24.90625 3.96875 C 24.863281 3.976563 24.820313 3.988281 24.78125 4 C 24.316406 4.105469 23.988281 4.523438 24 5 L 24 11 C 23.996094 11.359375 24.183594 11.695313 24.496094 11.878906 C 24.808594 12.058594 25.191406 12.058594 25.503906 11.878906 C 25.816406 11.695313 26.003906 11.359375 26 11 L 26 5 C 26.011719 4.710938 25.894531 4.433594 25.6875 4.238281 C 25.476563 4.039063 25.191406 3.941406 24.90625 3.96875 Z M 10.65625 9.84375 C 10.28125 9.910156 9.980469 10.183594 9.875 10.546875 C 9.769531 10.914063 9.878906 11.304688 10.15625 11.5625 L 14.40625 15.8125 C 14.648438 16.109375 15.035156 16.246094 15.410156 16.160156 C 15.78125 16.074219 16.074219 15.78125 16.160156 15.410156 C 16.246094 15.035156 16.109375 14.648438 15.8125 14.40625 L 11.5625 10.15625 C 11.355469 9.933594 11.054688 9.820313 10.75 9.84375 C 10.71875 9.84375 10.6875 9.84375 10.65625 9.84375 Z M 39.03125 9.84375 C 38.804688 9.875 38.59375 9.988281 38.4375 10.15625 L 34.1875 14.40625 C 33.890625 14.648438 33.753906 15.035156 33.839844 15.410156 C 33.925781 15.78125 34.21875 16.074219 34.589844 16.160156 C 34.964844 16.246094 35.351563 16.109375 35.59375 15.8125 L 39.84375 11.5625 C 40.15625 11.265625 40.246094 10.800781 40.0625 10.410156 C 39.875 10.015625 39.460938 9.789063 39.03125 9.84375 Z M 24.90625 15 C 24.875 15.007813 24.84375 15.019531 24.8125 15.03125 C 24.75 15.035156 24.6875 15.046875 24.625 15.0625 C 24.613281 15.074219 24.605469 15.082031 24.59375 15.09375 C 19.289063 15.320313 15 19.640625 15 25 C 15 30.503906 19.496094 35 25 35 C 30.503906 35 35 30.503906 35 25 C 35 19.660156 30.746094 15.355469 25.46875 15.09375 C 25.433594 15.09375 25.410156 15.0625 25.375 15.0625 C 25.273438 15.023438 25.167969 15.003906 25.0625 15 C 25.042969 15 25.019531 15 25 15 C 24.96875 15 24.9375 15 24.90625 15 Z M 24.9375 17 C 24.957031 17 24.980469 17 25 17 C 25.03125 17 25.0625 17 25.09375 17 C 29.46875 17.050781 33 20.613281 33 25 C 33 29.421875 29.421875 33 25 33 C 20.582031 33 17 29.421875 17 25 C 17 20.601563 20.546875 17.035156 24.9375 17 Z M 4.71875 24 C 4.167969 24.078125 3.78125 24.589844 3.859375 25.140625 C 3.9375 25.691406 4.449219 26.078125 5 26 L 11 26 C 11.359375 26.003906 11.695313 25.816406 11.878906 25.503906 C 12.058594 25.191406 12.058594 24.808594 11.878906 24.496094 C 11.695313 24.183594 11.359375 23.996094 11 24 L 5 24 C 4.96875 24 4.9375 24 4.90625 24 C 4.875 24 4.84375 24 4.8125 24 C 4.78125 24 4.75 24 4.71875 24 Z M 38.71875 24 C 38.167969 24.078125 37.78125 24.589844 37.859375 25.140625 C 37.9375 25.691406 38.449219 26.078125 39 26 L 45 26 C 45.359375 26.003906 45.695313 25.816406 45.878906 25.503906 C 46.058594 25.191406 46.058594 24.808594 45.878906 24.496094 C 45.695313 24.183594 45.359375 23.996094 45 24 L 39 24 C 38.96875 24 38.9375 24 38.90625 24 C 38.875 24 38.84375 24 38.8125 24 C 38.78125 24 38.75 24 38.71875 24 Z M 15 33.875 C 14.773438 33.90625 14.5625 34.019531 14.40625 34.1875 L 10.15625 38.4375 C 9.859375 38.679688 9.722656 39.066406 9.808594 39.441406 C 9.894531 39.8125 10.1875 40.105469 10.558594 40.191406 C 10.933594 40.277344 11.320313 40.140625 11.5625 39.84375 L 15.8125 35.59375 C 16.109375 35.308594 16.199219 34.867188 16.039063 34.488281 C 15.882813 34.109375 15.503906 33.867188 15.09375 33.875 C 15.0625 33.875 15.03125 33.875 15 33.875 Z M 34.6875 33.875 C 34.3125 33.941406 34.011719 34.214844 33.90625 34.578125 C 33.800781 34.945313 33.910156 35.335938 34.1875 35.59375 L 38.4375 39.84375 C 38.679688 40.140625 39.066406 40.277344 39.441406 40.191406 C 39.8125 40.105469 40.105469 39.8125 40.191406 39.441406 C 40.277344 39.066406 40.140625 38.679688 39.84375 38.4375 L 35.59375 34.1875 C 35.40625 33.988281 35.148438 33.878906 34.875 33.875 C 34.84375 33.875 34.8125 33.875 34.78125 33.875 C 34.75 33.875 34.71875 33.875 34.6875 33.875 Z M 24.90625 37.96875 C 24.863281 37.976563 24.820313 37.988281 24.78125 38 C 24.316406 38.105469 23.988281 38.523438 24 39 L 24 45 C 23.996094 45.359375 24.183594 45.695313 24.496094 45.878906 C 24.808594 46.058594 25.191406 46.058594 25.503906 45.878906 C 25.816406 45.695313 26.003906 45.359375 26 45 L 26 39 C 26.011719 38.710938 25.894531 38.433594 25.6875 38.238281 C 25.476563 38.039063 25.191406 37.941406 24.90625 37.96875 Z"/></svg>
